icons/filament-filled.svg

<svg xmlns="http://www.w3.org/2000/svg" width="256" height="256" fill="none"><path fill="#FDAE4B" d="M196 0H60C26.863 0 0 26.863 0 60v136c0 33.137 26.863 60 60 60h136c33.137 0 60-26.863 60-60V60c0-33.137-26.863-60-60-60"/><path fill="#030303" d="m132.2 102.9 3.8-9.7s-19.3.8-19.4.5l-2.4 8.7-.1.4c-.2 1.3.3 2.5 1.3 3.2l13.4 9.3-15.6 1.1c-1.3 0-2.3 1-2.6 2.4l-1.2 5.5-.1.4c-.2 1.3.3 2.5 1.3 3.2l13.4 9.3-15.6 1.1c-1.3 0-2.3 1-2.6 2.4l-1.2 5.5-.1.4c-.2 1.3.3 2.5 1.3 3.2l13.4 9.3-15.6 1.1c-1.3 0-2.3 1-2.6 2.4l-1.2 5.5-.1.4c-.2 1.3.3 2.5 1.3 3.2l13.4 9.3-15.6 1.1c-1.3 0-2.3 1-2.6 2.4L95 190l-.1.4c-.2 1.3.3 2.5 1.3 3.2l13.4 9.3L94 204c-1.3 0-2.3 1-2.6 2.4L86 227.9h17.5l2.7-11.7 21.9-1.9c1.3 0 2.3-1 2.6-2.4l1.2-5.5.1-.4c.2-1.3-.3-2.5-1.3-3.2l-13.4-9.3 15.6-1.1c1.3 0 2.3-1 2.6-2.4l1.2-5.5.1-.4c.2-1.3-.3-2.5-1.3-3.2l-13.4-9.3 15.6-1.1c1.3 0 2.3-1 2.6-2.4l1.2-5.5.1-.4c.2-1.3-.3-2.5-1.3-3.2l-13.4-9.3 15.6-1.1c1.3 0 2.3-1 2.6-2.4l1.2-5.5.1-.4c.2-1.3-.3-2.5-1.3-3.2l-13.4-9.3 15.6-1c1.3 0 2.3-1 2.6-2.4l1.2-5.5.1-.4c.2-1.3-.3-2.5-1.3-3.2zm33.1-67.6c-3.4-4.9-8.7-7.3-15.9-7.3s-13.2 1.6-18.2 4.6c-5 3.2-8.2 8.3-9.7 15.5-1.6 7.9-.6 13.9 3 18.2s8.9 6.4 16 6.4c7.2 0 13.3-1.4 18.2-4.1s8.1-8 9.7-15.8c1.4-6.8.4-12.6-3.1-17.5"/></svg>

<svg width="256" height="256" viewBox="0 0 256 256" fill="none" xmlns="http://www.w3.org/2000/svg">
<path d="M196 0H60C26.8629 0 0 26.8629 0 60V196C0 229.137 26.8629 256 60 256H196C229.137 256 256 229.137 256 196V60C256 26.8629 229.137 0 196 0Z" fill="#FDAE4B"/>
<path d="M132.2 102.9L136 93.2C136 93.2 116.7 94 116.6 93.7L114.2 102.4L114.1 102.8C113.9 104.1 114.4 105.3 115.4 106L128.8 115.3L113.2 116.4C111.9 116.4 110.9 117.4 110.6 118.8L109.4 124.3L109.3 124.7C109.1 126 109.6 127.2 110.6 127.9L124 137.2L108.4 138.3C107.1 138.3 106.1 139.3 105.8 140.7L104.6 146.2L104.5 146.6C104.3 147.9 104.8 149.1 105.8 149.8L119.2 159.1L103.6 160.2C102.3 160.2 101.3 161.2 101 162.6L99.8 168.1L99.7 168.5C99.5 169.8 100 171 101 171.7L114.4 181L98.8 182.1C97.5 182.1 96.5 183.1 96.2 184.5L95 190L94.9 190.4C94.7 191.7 95.2 192.9 96.2 193.6L109.6 202.9L94 204C92.7 204 91.7 205 91.4 206.4L86 227.9H103.5L106.2 216.2L128.1 214.3C129.4 214.3 130.4 213.3 130.7 211.9L131.9 206.4L132 206C132.2 204.7 131.7 203.5 130.7 202.8L117.3 193.5L132.9 192.4C134.2 192.4 135.2 191.4 135.5 190L136.7 184.5L136.8 184.1C137 182.8 136.5 181.6 135.5 180.9L122.1 171.6L137.7 170.5C139 170.5 140 169.5 140.3 168.1L141.5 162.6L141.6 162.2C141.8 160.9 141.3 159.7 140.3 159L126.9 149.7L142.5 148.6C143.8 148.6 144.8 147.6 145.1 146.2L146.3 140.7L146.4 140.3C146.6 139 146.1 137.8 145.1 137.1L131.7 127.8L147.3 126.8C148.6 126.8 149.6 125.8 149.9 124.4L151.1 118.9L151.2 118.5C151.4 117.2 150.9 116 149.9 115.3L132.2 102.9Z" fill="#030303"/>
<path d="M165.3 35.3C161.9 30.4 156.6 28 149.4 28C142.2 28 136.2 29.6 131.2 32.6C126.2 35.8 123 40.9 121.5 48.1C119.9 56 120.9 62 124.5 66.3C128.1 70.6 133.4 72.7 140.5 72.7C147.7 72.7 153.8 71.3 158.7 68.6C163.6 65.9 166.8 60.6 168.4 52.8C169.8 46 168.8 40.2 165.3 35.3Z" fill="#030303"/>
</svg>
